X:17
T:Gubbstt
T:efter Pelle Fors
R:Gubbstt
O:Vikbolandet, stergtland
S:efter Pelle Fors
B:Ltar efter Pelle Fors
Z:Bjrn Ek 2009-01-01
N:Nr 17 i Ltar efter Pelle Fors
M:3/4
L:1/8
K:D
%
d>c B>A B>c|d2 A2 F2|d2 A>B A>G|F2 A2 (d>c)|
(BA) Bc (d>f)|A2 B2 c2|(d/e/d/c/) d4:|
%
|:f2 d>d d2 |g2 e>e e2 |e2 ed cB    |A2 df (fa)|
(af) df (df)|A2 (ce) eg|B>a a2 (c>e)|(d/e/d/c/) d4:|
%
